!!!OTL: Menkuo guazhandeng
!!!OTL: Menkuo guazhandeng
!!!ARE: Asia, China,ÿHunan Sangzhi  
!! I, 524, 2)
!!!SCT: C2187
!!!YEM: Copyright 1995, estate of Helmut Schaffrath.
**kern
*ICvox
*Ivox
*M4/4
*k[b-]
*F:
{8cc
16a
16a
8cc
8ee
8.dd
16cc
4dd
=1
8dd
16ee
16ee
8.dd
16cc
8.a
16g
4a}
=2
{8cc
4a
16a
16cc
8cc
16a
16g
8g
8f
=3
8g
16a
16a
16a
16g
8f
8.d
16c
4d}
=4
{8cc
16a
16a
8cc
8ee
8.dd
16cc
4dd
=5
8dd
16ee
16ee
8.dd
16cc
8.a
16g
4a}
=6
{8cc
4a
16a
16cc
8cc
16a
16g
8g
8f
=7
8g
16a
16a
16a
16g
8f
8.d
16c
4d}
==
!!!AGN: Xiaodiao
!!!ONB: ESAC (Essen Associative Code) Database: SENGANSU
!!!AMT: simple quadruple
!!!AIN: vox
!!!EED: Helmut Schaffrath
!!!EEV: 1.0
*-
